icons/mimetypes/32/text-css.svg

<?xml version="1.0" encoding="UTF-8" standalone="no"?>
<!-- Created with Inkscape (http://www.inkscape.org/) -->

<svg
   xmlns:dc="http://purl.org/dc/elements/1.1/"
   xmlns:cc="http://creativecommons.org/ns#"
   xmlns:rdf="http://www.w3.org/1999/02/22-rdf-syntax-ns#"
   xmlns:svg="http://www.w3.org/2000/svg"
   xmlns="http://www.w3.org/2000/svg"
   xmlns:xlink="http://www.w3.org/1999/xlink"
   xmlns:sodipodi="http://sodipodi.sourceforge.net/DTD/sodipodi-0.dtd"
   xmlns:inkscape="http://www.inkscape.org/namespaces/inkscape"
   width="32"
   version="1.1"
   height="32"
   id="svg60"
   inkscape:version="0.91 r13725"
   sodipodi:docname="text-css.svg">
  <sodipodi:namedview
     pagecolor="#ffffff"
     bordercolor="#666666"
     borderopacity="1"
     objecttolerance="10"
     gridtolerance="10"
     guidetolerance="10"
     inkscape:pageopacity="0"
     inkscape:pageshadow="2"
     inkscape:window-width="1920"
     inkscape:window-height="1021"
     id="namedview87"
     showgrid="false"
     inkscape:zoom="1"
     inkscape:cx="31.439579"
     inkscape:cy="7.2770562"
     inkscape:window-x="0"
     inkscape:window-y="30"
     inkscape:window-maximized="1"
     inkscape:current-layer="layer1"
     inkscape:snap-bbox="true"
     inkscape:bbox-nodes="true">
    <inkscape:grid
       type="xygrid"
       id="grid4270" />
  </sodipodi:namedview>
  <defs
     id="defs5455">
    <linearGradient
       id="linearGradient4351-5">
      <stop
         style="stop-color:#fddda3"
         id="stop4353-1" />
      <stop
         offset="1"
         style="stop-color:#fde3a7"
         id="stop4355-8" />
    </linearGradient>
    <linearGradient
       id="linearGradient4300-3">
      <stop
         style="stop-color:#f39c12"
         id="stop4302-0" />
      <stop
         offset="1"
         style="stop-color:#f9a11f"
         id="stop4304-0" />
    </linearGradient>
    <linearGradient
       id="linearGradient4300">
      <stop
         id="stop4302"
         style="stop-color:#f39c12" />
      <stop
         id="stop4304"
         style="stop-color:#f89406"
         offset="1" />
    </linearGradient>
    <linearGradient
       inkscape:collect="always"
       id="linearGradient9654">
      <stop
         style="stop-color:#060606;stop-opacity:1"
         offset="0"
         id="stop9656" />
      <stop
         style="stop-color:#000000;stop-opacity:0"
         offset="1"
         id="stop9658" />
    </linearGradient>
    <linearGradient
       inkscape:collect="always"
       id="linearGradient5944">
      <stop
         style="stop-color:#ffffff;stop-opacity:0"
         offset="0"
         id="stop5946" />
      <stop
         style="stop-color:#ffffff;stop-opacity:0.2"
         offset="1"
         id="stop5948" />
    </linearGradient>
    <linearGradient
       inkscape:collect="always"
       xlink:href="#linearGradient5944"
       id="linearGradient4316"
       gradientUnits="userSpaceOnUse"
       gradientTransform="translate(309.57143,152.4358)"
       x1="58"
       y1="392.36221"
       x2="58"
       y2="365.36221" />
    <linearGradient
       inkscape:collect="always"
       xlink:href="#linearGradient9654"
       id="linearGradient4318"
       gradientUnits="userSpaceOnUse"
       gradientTransform="translate(357.57143,507.798)"
       x1="47"
       y1="17"
       x2="54"
       y2="24" />
    <linearGradient
       inkscape:collect="always"
       xlink:href="#linearGradient9654"
       id="linearGradient4335"
       gradientUnits="userSpaceOnUse"
       gradientTransform="translate(357.57142,507.798)"
       x1="47"
       y1="17"
       x2="54"
       y2="24" />
    <linearGradient
       inkscape:collect="always"
       xlink:href="#linearGradient5944"
       id="linearGradient4337"
       gradientUnits="userSpaceOnUse"
       gradientTransform="translate(309.57142,152.4358)"
       x1="58"
       y1="392.36221"
       x2="58"
       y2="365.36221" />
  </defs>
  <metadata
     id="metadata5458">
    <rdf:RDF>
      <cc:Work
         rdf:about="">
        <dc:format>image/svg+xml</dc:format>
        <dc:type
           rdf:resource="http://purl.org/dc/dcmitype/StillImage" />
      </cc:Work>
    </rdf:RDF>
  </metadata>
  <g
     inkscape:label="Capa 1"
     inkscape:groupmode="layer"
     id="layer1"
     transform="matrix(1 0 0 1 -384.57143 -515.798)">
    <rect
       width="0"
       x="415.89221"
       y="526.79797"
       height="10.999983"
       style="fill:#ffffff"
       id="rect4035-2" />
    <rect
       width="0"
       x="415.57144"
       y="525.79797"
       height="10.999983"
       style="fill:#ffffff"
       id="rect4035-4-37" />
    <rect
       width="0"
       x="405.89221"
       y="-536.79797"
       height="10.999983"
       style="fill:#ffffff"
       id="rect4035-6"
       transform="scale(1,-1)" />
    <rect
       width="0"
       x="405.57144"
       y="-537.79797"
       height="10.999983"
       style="fill:#ffffff"
       id="rect4035-4-2-2"
       transform="scale(1,-1)" />
    <rect
       width="0"
       x="404.03558"
       y="-537.9118"
       height="11.1139"
       style="fill:#fbd2bf"
       id="rect4035-3-8"
       transform="scale(1,-1)" />
    <rect
       width="0"
       x="405.57144"
       y="-537.79797"
       height="10.999983"
       style="fill:#fbd2bf"
       id="rect4035-1-97"
       transform="scale(1,-1)" />
    <rect
       width="0"
       x="415.89221"
       y="526.79797"
       height="10.999983"
       style="fill:#ffffff"
       id="rect4035-75" />
    <rect
       width="0"
       x="415.57144"
       y="525.79797"
       height="10.999983"
       style="fill:#ffffff"
       id="rect4035-4-3" />
    <rect
       width="0"
       x="414.03558"
       y="525.68414"
       height="11.1139"
       style="fill:#fbd2bf"
       id="rect4035-3-56" />
    <rect
       width="0"
       x="415.57144"
       y="525.79797"
       height="10.999983"
       style="fill:#fbd2bf"
       id="rect4035-1-2" />
    <rect
       width="0"
       x="415.57144"
       y="525.79797"
       height="10.999983"
       style="fill:#fbfbfb"
       id="rect4035-5-9" />
    <rect
       width="0"
       x="415.89221"
       y="526.79797"
       height="10.999983"
       style="fill:#ffffff"
       id="rect4035-7-1" />
    <rect
       width="0"
       x="415.57144"
       y="525.79797"
       height="10.999983"
       style="fill:#ffffff"
       id="rect4035-4-53" />
    <rect
       width="0"
       x="414.03558"
       y="525.68414"
       height="11.1139"
       style="fill:#fbd2bf"
       id="rect4035-3-5" />
    <rect
       width="0"
       x="415.57144"
       y="525.79797"
       height="10.999983"
       style="fill:#fbd2bf"
       id="rect4035-1-6" />
    <rect
       width="0"
       x="415.57144"
       y="525.79797"
       height="10.999983"
       style="fill:#fbfbfb"
       id="rect4035-5-2" />
    <rect
       width="0"
       x="415.89221"
       y="526.79797"
       height="10.999983"
       style="fill:#ffffff"
       id="rect4035-53" />
    <rect
       width="0"
       x="415.57144"
       y="525.79797"
       height="10.999983"
       style="fill:#ffffff"
       id="rect4035-4-5" />
    <rect
       width="0"
       x="415.89221"
       y="526.79797"
       height="10.999983"
       style="fill:#ffffff"
       id="rect4035-535" />
    <rect
       width="0"
       x="415.57144"
       y="525.79797"
       height="10.999983"
       style="fill:#ffffff"
       id="rect4035-4-6" />
    <rect
       width="0"
       x="414.03558"
       y="525.68414"
       height="11.1139"
       style="fill:#fbd2bf"
       id="rect4035-3-2" />
    <rect
       width="0"
       x="415.57144"
       y="525.79797"
       height="10.999983"
       style="fill:#fbd2bf"
       id="rect4035-1-9" />
    <rect
       width="0"
       x="415.57144"
       y="525.79797"
       height="10.999983"
       style="fill:#fbfbfb"
       id="rect4035-5" />
    <rect
       width="0"
       x="415.57144"
       y="525.79797"
       height="10.999983"
       style="fill:#fffcf9"
       id="rect4035-8" />
    <rect
       width="0"
       x="415.57144"
       y="525.79797"
       height="10.999983"
       style="fill:#e8d9eb"
       id="rect4035-44" />
    <rect
       width="0"
       x="415.57144"
       y="525.79797"
       height="10.999983"
       style="fill:#e8d9eb"
       id="rect4035-7" />
    <rect
       width="0"
       x="415.89221"
       y="526.79797"
       height="10.999983"
       style="fill:#ffffff"
       id="rect4035" />
    <rect
       width="0"
       x="415.57144"
       y="525.79797"
       height="10.999983"
       style="fill:#ffffff"
       id="rect4035-4" />
    <rect
       width="0"
       x="414.03558"
       y="525.68414"
       height="11.1139"
       style="fill:#fbd2bf"
       id="rect4035-3" />
    <rect
       width="0"
       x="415.57144"
       y="525.79797"
       height="10.999983"
       style="fill:#fbd2bf"
       id="rect4035-1" />
    <g
       id="g4438">
      <path
         d="m 389.57142,545.798 0,-28 15,0 7.00001,7 0,0 0,21 -14.00001,0 z"
         id="path4211-9"
         style="color:#000000;clip-rule:nonzero;display:inline;overflow:visible;visibility:visible;opacity:1;isolation:auto;mix-blend-mode:normal;color-interpolation:sRGB;color-interpolation-filters:linearRGB;solid-color:#000000;solid-opacity:1;fill:#f9d24c;fill-opacity:1;fill-rule:nonzero;stroke-width:1;stroke-linecap:butt;stroke-linejoin:miter;stroke-miterlimit:4;stroke-dasharray:none;stroke-dashoffset:0;stroke-opacity:1;color-rendering:auto;image-rendering:auto;shape-rendering:auto;text-rendering:auto;enable-background:accumulate;stroke:none;marker:none;filter-blend-mode:normal;filter-gaussianBlur-deviation:0"
         inkscape:connector-curvature="0"
         inkscape:export-xdpi="96"
         inkscape:export-ydpi="96"
         sodipodi:nodetypes="cccccccc" />
      <rect
         transform="scale(1,-1)"
         id="rect4169-9-1"
         style="color:#000000;clip-rule:nonzero;display:inline;overflow:visible;visibility:visible;opacity:0.5;isolation:auto;mix-blend-mode:normal;color-interpolation:sRGB;color-interpolation-filters:linearRGB;solid-color:#000000;solid-opacity:1;fill:#ffffff;fill-opacity:1;fill-rule:nonzero;stroke-width:1;stroke-linecap:butt;stroke-linejoin:miter;stroke-miterlimit:4;stroke-dasharray:none;stroke-dashoffset:0;stroke-opacity:1;color-rendering:auto;image-rendering:auto;shape-rendering:auto;text-rendering:auto;enable-background:accumulate;filter-blend-mode:normal;filter-gaussianBlur-deviation:0"
         height="0.999973"
         y="-518.79797"
         x="389.57144"
         width="14.999983" />
      <rect
         transform="scale(1,-1)"
         id="rect4236-1-2"
         style="color:#000000;clip-rule:nonzero;display:inline;overflow:visible;visibility:visible;opacity:0.25;isolation:auto;mix-blend-mode:normal;color-interpolation:sRGB;color-interpolation-filters:linearRGB;solid-color:#000000;solid-opacity:1;fill:#000000;fill-opacity:1;fill-rule:nonzero;stroke-width:1;stroke-linecap:butt;stroke-linejoin:miter;stroke-miterlimit:4;stroke-dasharray:none;stroke-dashoffset:0;stroke-opacity:1;color-rendering:auto;image-rendering:auto;shape-rendering:auto;text-rendering:auto;enable-background:accumulate;filter-blend-mode:normal;filter-gaussianBlur-deviation:0"
         height="1.00003"
         y="-545.79797"
         x="389.57144"
         width="21.999994" />
      <path
         d="m 411.57143,524.79797 -7.00001,-7 0,7 z"
         id="path4314-2-7"
         style="color:#000000;clip-rule:nonzero;display:inline;overflow:visible;visibility:visible;opacity:0.5;isolation:auto;mix-blend-mode:normal;color-interpolation:sRGB;color-interpolation-filters:linearRGB;solid-color:#000000;solid-opacity:1;fill:#ffffff;fill-opacity:1;fill-rule:evenodd;stroke-width:1;stroke-linecap:butt;stroke-linejoin:miter;stroke-miterlimit:4;stroke-dasharray:none;stroke-dashoffset:0;stroke-opacity:1;color-rendering:auto;image-rendering:auto;shape-rendering:auto;text-rendering:auto;enable-background:accumulate;filter-blend-mode:normal;filter-gaussianBlur-deviation:0"
         inkscape:connector-curvature="0" />
      <path
         sodipodi:nodetypes="cccc"
         d="m 404.57142,524.798 7.00001,7 0,-7 z"
         id="path4255-5"
         style="opacity:0.1;fill:url(#linearGradient4335);fill-rule:evenodd"
         inkscape:connector-curvature="0"
         inkscape:export-xdpi="96"
         inkscape:export-ydpi="96" />
      <path
         id="path4211-2"
         transform="translate(384.57143,515.798)"
         d="M 14 11 C 12.83531 11.411 12 12.507253 12 13.814453 L 12 13.996094 L 12 14.013672 L 12 14.195312 C 12 14.935313 11.5958 15.572869 11 15.917969 L 11 17.009766 L 11 18.083984 C 11.5958 18.429084 12 19.064687 12 19.804688 L 12 19.986328 L 12 20.005859 L 12 20.185547 C 12 21.492647 12.83531 22.589 14 23 L 14 21.908203 C 13.4042 21.563103 13 20.925547 13 20.185547 L 13 20.005859 L 13 19.986328 L 13 19.804688 C 13 18.504977 12.173771 17.41644 11.019531 17 C 12.173401 16.58337 13 15.494653 13 14.195312 L 13 14.013672 L 13 13.996094 L 13 13.814453 C 13 13.074453 13.4042 12.436897 14 12.091797 L 14 11 z M 18 11 L 18 12.091797 C 18.5958 12.436797 19 13.074453 19 13.814453 L 19 13.996094 L 19 14.013672 L 19 14.195312 C 19 15.494653 19.826599 16.58337 20.980469 17 C 19.826229 17.41644 19 18.505077 19 19.804688 L 19 19.986328 L 19 20.005859 L 19 20.185547 C 19 20.925547 18.5958 21.563203 18 21.908203 L 18 23 C 19.16469 22.589 20 21.492747 20 20.185547 L 20 20.005859 L 20 19.986328 L 20 19.804688 C 20 19.064687 20.4042 18.429084 21 18.083984 L 21 17.009766 L 21 16.992188 L 21 15.917969 C 20.4042 15.572869 20 14.935313 20 14.195312 L 20 14.013672 L 20 13.996094 L 20 13.814453 C 20 12.507253 19.16469 11.411 18 11 z M 9.4921875 21.580078 L 9.4921875 23 L 11 23 L 11 21.580078 L 9.4921875 21.580078 z "
         style="color:#000000;clip-rule:nonzero;display:inline;overflow:visible;visibility:visible;opacity:0.75;isolation:auto;mix-blend-mode:normal;color-interpolation:sRGB;color-interpolation-filters:linearRGB;solid-color:#000000;solid-opacity:1;fill:#ffffff;fill-opacity:1;fill-rule:nonzero;stroke-width:1;stroke-linecap:butt;stroke-linejoin:miter;stroke-miterlimit:4;stroke-dasharray:none;stroke-dashoffset:0;stroke-opacity:1;color-rendering:auto;image-rendering:auto;shape-rendering:auto;text-rendering:auto;enable-background:accumulate;filter-blend-mode:normal;filter-gaussianBlur-deviation:0" />
      <path
         sodipodi:nodetypes="cccccccc"
         inkscape:export-ydpi="96"
         inkscape:export-xdpi="96"
         inkscape:connector-curvature="0"
         style="fill:url(#linearGradient4337);fill-opacity:1"
         id="path7628-2-9"
         d="m 389.57142,545.798 0,-28 15,0 7.00001,7 0,0 0,21 -14.00001,0 z" />
    </g>
  </g>
</svg>

<svg width="32" xmlns="http://www.w3.org/2000/svg" height="32" xmlns:xlink="http://www.w3.org/1999/xlink">
 <defs>
  <linearGradient id="a" y1="17" x1="47" y2="24" gradientUnits="userSpaceOnUse" x2="54" gradientTransform="translate(357.57 507.8)">
   <stop stop-color="#060606"/>
   <stop offset="1" stop-opacity="0"/>
  </linearGradient>
  <linearGradient id="b" y1="392.36" y2="365.36" gradientUnits="userSpaceOnUse" x2="0" gradientTransform="translate(309.57 152.44)">
   <stop stop-color="#ffffff" stop-opacity="0"/>
   <stop offset="1" stop-color="#ffffff" stop-opacity=".2"/>
  </linearGradient>
  <path id="c" d="m389.57 545.8v-28h15l7 7v21h-14z"/>
 </defs>
 <g transform="translate(-384.57-515.8)">
  <g color-rendering="auto" color-interpolation-filters="linearRGB" shape-rendering="auto" image-rendering="auto" text-rendering="auto" color-interpolation="sRGB" color="#000000">
   <use fill="#f9d24c" xlink:href="#c"/>
   <g transform="scale(1-1)">
    <rect opacity=".5" x="389.57" y="-518.8" width="15" fill="#ffffff" height="1"/>
    <rect opacity=".25" x="389.57" y="-545.8" width="22" height="1"/>
   </g>
   <path opacity=".5" fill="#ffffff" fill-rule="evenodd" d="m411.57 524.8l-7-7v7z"/>
  </g>
  <path opacity=".1" fill="url(#a)" fill-rule="evenodd" d="m404.57 524.8l7 7v-7z"/>
  <path opacity=".75" color-interpolation-filters="linearRGB" color="#000000" image-rendering="auto" color-rendering="auto" d="m14 11c-1.165.411-2 1.507-2 2.814v.381c0 .74-.404 1.378-1 1.723v2.166c.596.345 1 .981 1 1.721v.381c0 1.307.835 2.403 2 2.814v-1.092c-.596-.345-1-.983-1-1.723v-.381c0-1.3-.826-2.388-1.98-2.805 1.154-.417 1.98-1.505 1.98-2.805v-.381c0-.74.404-1.378 1-1.723zm4 0v1.092c.596.345 1 .983 1 1.723v.381c0 1.299.827 2.388 1.98 2.805-1.154.416-1.98 1.505-1.98 2.805v.381c0 .74-.404 1.378-1 1.723v1.092c1.165-.411 2-1.507 2-2.814v-.381c0-.74.404-1.376 1-1.721v-2.166c-.596-.345-1-.983-1-1.723v-.381c0-1.307-.835-2.403-2-2.814m-8.508 10.58v1.42h1.508v-1.42z" color-interpolation="sRGB" text-rendering="auto" fill="#ffffff" shape-rendering="auto" transform="translate(384.57 515.8)"/>
  <use fill="url(#b)" xlink:href="#c"/>
 </g>
</svg>
